packages/gestalt-icons-android/vr-theme/ic_vr_service-youtube_gestalt.svg

<svg width="24" height="24" viewBox="0 0 24 24" fill="none" xmlns="http://www.w3.org/2000/svg">
<path fill-rule="evenodd" clip-rule="evenodd" d="M9.75 15.271V8.729L15.5 12L9.75 15.271ZM22.54 6.67C22.287 5.718 21.542 4.967 20.595 4.713C18.88 4.25 12 4.25 12 4.25C12 4.25 5.12 4.25 3.405 4.713C2.458 4.967 1.713 5.718 1.46 6.67C1 8.397 1 12 1 12C1 12 1 15.603 1.46 17.33C1.713 18.282 2.458 19.033 3.405 19.287C5.12 19.75 12 19.75 12 19.75C12 19.75 18.88 19.75 20.595 19.287C21.542 19.033 22.287 18.282 22.54 17.33C23 15.603 23 12 23 12C23 12 23 8.397 22.54 6.67Z" fill="black"/>
</svg>

<svg xmlns="http://www.w3.org/2000/svg" width="24" height="24"><path d="M9.75 15.27V8.73L15.5 12zm12.79-8.6c-.25-.95-1-1.7-1.94-1.96-1.72-.46-8.6-.46-8.6-.46s-6.88 0-8.6.46c-.94.26-1.69 1-1.94 1.96C1 8.4 1 12 1 12s0 3.6.46 5.33c.25.95 1 1.7 1.94 1.96 1.72.46 8.6.46 8.6.46s6.88 0 8.6-.46c.94-.26 1.69-1 1.94-1.96C23 15.6 23 12 23 12s0-3.6-.46-5.33"/></svg>
